img/xing.svg

<svg width="24" height="24" viewBox="0 0 24 24" fill="none" xmlns="http://www.w3.org/2000/svg">
<path d="M3.85998 4.73999C3.65098 4.73999 3.47599 4.81399 3.38798 4.95699C3.29598 5.10399 3.30998 5.29499 3.40798 5.48699L5.74799 9.53899C5.75199 9.54699 5.75199 9.55199 5.74799 9.55899L2.06998 16.049C1.97398 16.239 1.97898 16.432 2.06998 16.579C2.11795 16.6549 2.1851 16.7167 2.26464 16.7584C2.34418 16.8 2.4333 16.8198 2.52298 16.816H5.98399C6.50099 16.816 6.75099 16.466 6.92799 16.147L10.665 9.53899L8.28499 5.38899C8.11299 5.08299 7.85198 4.73999 7.32199 4.73999H3.85998Z" fill="#005A5F"/>
<path d="M18.401 0C17.884 0 17.661 0.326 17.474 0.66C17.474 0.66 10.018 13.884 9.77197 14.318L14.69 23.341C14.862 23.648 15.127 24 15.657 24H19.114C19.323 24 19.486 23.922 19.574 23.779C19.666 23.631 19.664 23.436 19.567 23.244L14.687 14.329C14.6846 14.3256 14.6833 14.3216 14.6833 14.3175C14.6833 14.3134 14.6846 14.3094 14.687 14.306L22.351 0.756C22.447 0.564 22.449 0.369 22.358 0.221C22.27 0.08 22.106 0 21.898 0H18.401Z" fill="#D4D600"/>
</svg>

<svg xmlns="http://www.w3.org/2000/svg" width="24" height="24" fill="none" viewBox="0 0 24 24">
  <g clip-path="url(#a)">
    <path fill="#005A5F" d="M3.86 4.74c-.209 0-.384.074-.472.217-.092.147-.078.338.02.53l2.34 4.052c.004.008.004.013 0 .02l-3.678 6.49c-.096.19-.091.383 0 .53a.51.51 0 0 0 .453.237h3.461c.517 0 .767-.35.944-.669l3.737-6.608-2.38-4.15c-.172-.306-.433-.649-.963-.649H3.86Z"/>
    <path fill="#D4D600" d="M18.401 0c-.517 0-.74.326-.927.66 0 0-7.456 13.224-7.702 13.658l4.918 9.023c.172.307.437.659.967.659h3.457c.209 0 .372-.078.46-.221.092-.148.09-.343-.007-.535l-4.88-8.915a.02.02 0 0 1 0-.023L22.351.756c.096-.192.098-.387.007-.535C22.27.08 22.106 0 21.898 0H18.4Z"/>
  </g>
  <defs>
    <clipPath id="a">
      <path fill="#fff" d="M0 0h24v24H0z"/>
    </clipPath>
  </defs>
</svg>
